build/assets/img/partners/airbnb.svg

<svg width="184" height="58" viewBox="0 0 184 58" fill="none" xmlns="http://www.w3.org/2000/svg">
<path d="M52.9535 40.6842C52.664 39.9853 52.3925 39.2505 52.103 38.6233L50.7638 35.6304L50.7095 35.5766C46.7281 26.9743 42.4753 18.2287 37.9691 9.62637L37.7881 9.26794C37.3357 8.42564 36.8833 7.49372 36.4127 6.63349C35.8336 5.61197 35.2726 4.51876 34.3497 3.47932C33.45 2.39172 32.3178 1.51547 31.0347 0.913785C29.7515 0.312102 28.3495 0 26.9298 0C25.5101 0 24.1081 0.312102 22.825 0.913785C21.5419 1.51547 20.4097 2.39172 19.51 3.47932C18.6594 4.51876 18.026 5.61197 17.4469 6.63349C16.9945 7.56541 16.5421 8.4794 16.0716 9.32171L15.8906 9.68014C11.4568 18.2824 7.13156 27.0281 3.15019 35.6304L3.04161 35.7379C2.64347 36.6698 2.17294 37.6376 1.72052 38.677C1.43096 39.3043 1.14141 39.9853 0.851852 40.738C0.0701148 42.709 -0.179519 44.8476 0.127554 46.9433C0.434628 49.0389 1.28781 51.0191 2.60301 52.6887C3.91822 54.3584 5.65005 55.6598 7.62783 56.4648C9.60561 57.2698 11.7611 57.5506 13.8818 57.2795C15.915 57.0144 17.8727 56.3438 19.6367 55.3081C21.9893 53.9998 24.2515 52.1002 26.7851 49.3582C29.3187 52.1002 31.6351 53.9998 33.9334 55.326C36.1436 56.6107 38.6466 57.3198 41.2085 57.387C44.1752 57.3992 47.0463 56.3481 49.2915 54.4277C51.5368 52.5072 53.0046 49.8473 53.4241 46.9388C53.9088 44.8488 53.7448 42.6625 52.9535 40.6663V40.6842ZM26.966 43.6592C23.8533 39.7165 21.8264 36.0963 21.1388 32.9959C20.8538 31.847 20.7924 30.6549 20.9578 29.4833C21.0845 28.5693 21.4283 27.7629 21.8988 27.0818C22.9847 25.5227 24.8849 24.5549 26.966 24.5549C27.9544 24.525 28.9348 24.7386 29.8192 25.1765C30.7036 25.6144 31.4644 26.263 32.0332 27.0639C32.5038 27.7808 32.8476 28.5693 32.9562 29.4833C33.1372 30.5228 33.0648 31.7235 32.7752 32.9959C32.0875 36.0426 30.0606 39.6985 26.966 43.6592ZM50.0218 46.3115C49.8162 47.7882 49.2234 49.1857 48.3026 50.3648C47.3818 51.544 46.1651 52.4636 44.7736 53.0321C43.3982 53.6056 41.8781 53.7669 40.3941 53.6056C38.9463 53.4264 37.4986 52.9604 36.0146 52.1002C33.5507 50.5921 31.3351 48.7184 29.4453 46.5445C33.2457 41.885 35.5441 37.6376 36.4127 33.8562C36.829 32.064 36.8833 30.4511 36.7023 28.9636C36.4763 27.5537 35.9454 26.2088 35.1459 25.0209C34.2331 23.7328 33.0147 22.6865 31.5979 21.974C30.181 21.2615 28.6091 20.9047 27.0203 20.9348C23.6724 20.9348 20.6863 22.476 18.8766 25.003C18.0619 26.1879 17.5354 27.5435 17.3384 28.9636C17.1031 30.469 17.1574 32.1357 17.6279 33.8562C18.4966 37.6376 20.8492 41.9387 24.5953 46.5804C22.7376 48.7957 20.5169 50.6859 18.026 52.1719C16.524 53.0321 15.0943 53.4801 13.6465 53.6593C11.395 53.9449 9.12071 53.339 7.31789 51.9731C5.51507 50.6073 4.3295 48.592 4.01885 46.3653C3.83788 44.9316 3.96456 43.4979 4.54367 41.885C4.72464 41.3115 4.9961 40.738 5.28565 40.057C5.68379 39.125 6.15432 38.1573 6.60674 37.1895L6.67913 37.0641C10.5881 28.5156 14.859 19.7878 19.2928 11.2393L19.4738 10.8809C19.9262 10.0206 20.3787 9.10665 20.8492 8.24642C21.3197 7.33243 21.8264 6.45428 22.4779 5.73742C23.0419 5.07078 23.7465 4.53466 24.5423 4.16681C25.338 3.79897 26.2055 3.60833 27.0837 3.60833C27.9618 3.60833 28.8293 3.79897 29.6251 4.16681C30.4208 4.53466 31.1255 5.07078 31.6894 5.73742C32.3228 6.45428 32.8476 7.33243 33.3181 8.24642C33.7706 9.10665 34.223 10.0386 34.6935 10.8809L34.8745 11.2393C39.2902 19.7878 43.5611 28.5156 47.5425 37.0641L47.5968 37.1179C48.0673 38.0498 48.4654 39.0892 48.9179 39.9853C49.2074 40.6842 49.497 41.2398 49.678 41.8312C50.0218 43.4441 50.2028 44.8778 50.0218 46.3115ZM75.213 43.2649C73.8493 43.2847 72.4986 43.0001 71.2612 42.4324C70.0237 41.8646 68.9312 41.0282 68.0646 39.9853C66.1175 37.763 65.0841 34.8975 65.1691 31.9565C65.1393 28.9514 66.2061 26.0368 68.1732 23.7485C69.0832 22.6922 70.2158 21.8463 71.4915 21.2704C72.7672 20.6945 74.1549 20.4025 75.5569 20.4151C76.876 20.3793 78.1827 20.6764 79.354 21.2783C80.5254 21.8802 81.5229 22.7673 82.2528 23.856L82.4338 21.0423H87.7181V42.6914H82.4157L82.2347 39.5372C81.4822 40.6997 80.442 41.6524 79.2131 42.3048C77.9842 42.9573 76.6072 43.2877 75.213 43.2649ZM76.5884 38.1035C77.638 38.1035 78.561 37.8168 79.4296 37.2971C80.2259 36.7236 80.8774 35.9709 81.3841 35.0569C81.8366 34.1429 82.0718 33.0497 82.0718 31.831C82.1424 30.7726 81.9343 29.7141 81.468 28.7592C81.0017 27.8042 80.2931 26.9854 79.4116 26.3829C78.5645 25.8603 77.5864 25.5832 76.5884 25.5832C75.5904 25.5832 74.6123 25.8603 73.7653 26.3829C72.969 26.9564 72.3175 27.7091 71.8108 28.6231C71.3322 29.6311 71.0968 30.7354 71.1231 31.8489C71.0525 32.9074 71.2606 33.9659 71.7269 34.9208C72.1932 35.8758 72.9018 36.6946 73.7833 37.2971C74.6339 37.8168 75.5569 38.1035 76.5884 38.1035ZM96.7667 15.1999C96.7667 15.8272 96.6581 16.4007 96.3686 16.8666C96.079 17.3147 95.6809 17.7269 95.1561 18.0136C94.6313 18.3003 94.0702 18.4079 93.4911 18.4079C92.912 18.4079 92.3329 18.3003 91.8081 18.0136C91.3117 17.74 90.8943 17.3451 90.5956 16.8666C90.3153 16.3561 90.1779 15.7807 90.1974 15.1999C90.1974 14.5548 90.3241 13.9813 90.5956 13.5332C90.8851 12.9956 91.3014 12.673 91.8081 12.3863C92.3329 12.0995 92.8939 11.9741 93.4911 11.9741C94.0672 11.9609 94.6368 12.096 95.1443 12.3662C95.6519 12.6363 96.0799 13.0323 96.3867 13.5153C96.65 14.0378 96.7805 14.6161 96.7667 15.1999ZM90.6137 42.6197V21.0065H96.3686V42.6556H90.5956L90.6137 42.6197ZM111.751 26.6697V26.7413C111.48 26.6159 111.118 26.5621 110.846 26.5084C110.484 26.4367 110.195 26.4367 109.851 26.4367C108.24 26.4367 107.028 26.9026 106.232 27.8704C105.363 28.8561 104.965 30.236 104.965 32.0102V42.6377H99.1917V20.9886H104.494L104.675 24.2682C105.254 23.1212 105.942 22.261 106.919 21.6158C107.891 20.9889 109.036 20.6759 110.195 20.7197C110.611 20.7197 111.009 20.7556 111.353 20.8273C111.534 20.881 111.643 20.881 111.751 20.9348V26.6697ZM114.068 42.6197V12.1174H119.822V23.7664C120.637 22.7269 121.56 21.9205 122.718 21.2932C124.552 20.4029 126.635 20.1504 128.631 20.5764C130.627 21.0023 132.42 22.0819 133.721 23.6409C135.673 25.8679 136.706 28.7405 136.617 31.6877C136.646 34.6927 135.58 37.6074 133.613 39.8957C132.703 40.9519 131.57 41.7978 130.294 42.3737C129.018 42.9496 127.631 43.2416 126.229 43.2291C124.91 43.2648 123.603 42.9678 122.432 42.3658C121.26 41.7639 120.263 40.8769 119.533 39.7881L119.352 42.6018L114.068 42.6556V42.6197ZM125.197 38.1035C126.229 38.1035 127.152 37.8168 128.02 37.2971C128.817 36.7236 129.468 35.9709 129.975 35.0569C130.446 34.1429 130.663 33.0497 130.663 31.831C130.663 30.6303 130.446 29.5371 129.975 28.6231C129.5 27.7418 128.832 26.9765 128.02 26.3829C127.173 25.8603 126.195 25.5832 125.197 25.5832C124.199 25.5832 123.221 25.8603 122.374 26.3829C121.56 26.9564 120.926 27.7091 120.402 28.6231C119.923 29.6311 119.688 30.7354 119.714 31.8489C119.643 32.9074 119.851 33.9659 120.318 34.9208C120.784 35.8758 121.493 36.6946 122.374 37.2971C123.225 37.8168 124.148 38.1035 125.197 38.1035ZM138.788 42.6377V20.9886H144.091L144.272 23.8022C144.938 22.7237 145.883 21.841 147.01 21.2455C148.136 20.65 149.402 20.3633 150.678 20.4151C152.137 20.3901 153.571 20.7916 154.8 21.5694C156.03 22.3472 157.001 23.4667 157.591 24.7879C158.225 26.1499 158.568 27.8345 158.568 29.7163V42.6914H152.795V30.469C152.795 28.9636 152.452 27.7808 151.764 26.9026C151.076 26.0424 150.135 25.5764 148.941 25.5764C148.072 25.5764 147.312 25.7557 146.642 26.1499C146.009 26.5621 145.484 27.0818 145.086 27.8166C144.684 28.5594 144.484 29.3934 144.507 30.236V42.6377H138.788ZM161.446 42.6377V12.0995H167.219V23.7485C168.001 22.7032 169.018 21.8529 170.19 21.2649C171.362 20.6769 172.656 20.3676 173.969 20.3613C175.333 20.3416 176.684 20.6261 177.921 21.1938C179.158 21.7616 180.251 22.598 181.118 23.6409C183.055 25.8677 184.081 28.7316 183.995 31.6697C184.026 34.6751 182.959 37.5903 180.991 39.8778C180.081 40.934 178.948 41.7799 177.673 42.3558C176.397 42.9317 175.009 43.2237 173.607 43.2111C172.288 43.2469 170.981 42.9498 169.81 42.3479C168.639 41.746 167.641 40.859 166.911 39.7702L166.748 42.5839L161.446 42.6377ZM172.63 38.1035C173.68 38.1035 174.603 37.8168 175.453 37.2971C176.267 36.7236 176.901 35.9709 177.426 35.0569C177.878 34.1429 178.113 33.0497 178.113 31.831C178.184 30.7726 177.976 29.7141 177.51 28.7592C177.043 27.8042 176.335 26.9854 175.453 26.3829C174.606 25.8603 173.628 25.5832 172.63 25.5832C171.632 25.5832 170.654 25.8603 169.807 26.3829C169.011 26.9564 168.359 27.7091 167.852 28.6231C167.347 29.6221 167.11 30.733 167.165 31.8489C167.094 32.9074 167.302 33.9659 167.768 34.9208C168.235 35.8758 168.943 36.6946 169.825 37.2971C170.675 37.8168 171.544 38.1035 172.63 38.1035Z" fill="#4F4F4F"/>
</svg>

<svg width="184" height="58" fill="none" xmlns="http://www.w3.org/2000/svg"><path d="M52.953 40.684c-.289-.699-.56-1.433-.85-2.06l-1.34-2.994-.053-.053c-3.982-8.603-8.235-17.348-12.74-25.95l-.182-.36c-.452-.841-.905-1.773-1.375-2.634-.58-1.021-1.14-2.114-2.063-3.154A9.58 9.58 0 0031.035.914a9.67 9.67 0 00-8.21 0 9.58 9.58 0 00-3.315 2.565c-.85 1.04-1.484 2.133-2.063 3.154a53.383 53.383 0 01-1.375 2.689l-.181.358c-4.434 8.602-8.76 17.348-12.74 25.95l-.11.108c-.398.932-.868 1.9-1.32 2.939-.29.627-.58 1.308-.87 2.061a12.077 12.077 0 00-.723 6.205 12.126 12.126 0 002.475 5.746 12.294 12.294 0 005.025 3.776 12.417 12.417 0 006.254.814 15.265 15.265 0 005.755-1.97c2.352-1.31 4.614-3.209 7.148-5.95 2.534 2.741 4.85 4.64 7.148 5.967a15.277 15.277 0 007.276 2.061 12.36 12.36 0 008.082-2.96 12.137 12.137 0 004.133-7.488c.485-2.09.32-4.276-.47-6.273v.018zM26.966 43.66c-3.113-3.942-5.14-7.563-5.827-10.663a9.229 9.229 0 01-.181-3.513c.127-.914.47-1.72.94-2.401 1.087-1.56 2.987-2.527 5.068-2.527a6.021 6.021 0 012.853.622 5.956 5.956 0 012.214 1.887c.47.717.815 1.505.923 2.42.181 1.039.109 2.24-.18 3.512-.689 3.047-2.715 6.703-5.81 10.663zm23.056 2.653a8.487 8.487 0 01-1.72 4.053 8.605 8.605 0 01-3.528 2.667c-1.376.574-2.896.735-4.38.574-1.448-.18-2.895-.646-4.38-1.506a28.232 28.232 0 01-6.569-5.556c3.8-4.659 6.1-8.906 6.968-12.688.416-1.792.47-3.405.29-4.892a9.854 9.854 0 00-1.557-3.943 9.673 9.673 0 00-3.548-3.047 9.779 9.779 0 00-4.578-1.04c-3.348 0-6.334 1.542-8.143 4.069a9.228 9.228 0 00-1.539 3.96 11.686 11.686 0 00.29 4.893c.869 3.782 3.221 8.083 6.967 12.724a25.867 25.867 0 01-6.569 5.592c-1.502.86-2.932 1.308-4.38 1.487a8.676 8.676 0 01-6.328-1.686 8.514 8.514 0 01-3.3-5.608c-.18-1.433-.053-2.867.526-4.48.18-.573.452-1.147.742-1.828.398-.932.868-1.9 1.32-2.867l.073-.126A583.933 583.933 0 0119.293 11.24l.18-.358c.453-.86.906-1.774 1.376-2.635.47-.914.977-1.792 1.629-2.509a6.002 6.002 0 012.064-1.57 6.057 6.057 0 015.083 0c.796.368 1.5.904 2.064 1.57.634.717 1.159 1.595 1.63 2.51.452.86.904 1.792 1.374 2.634l.181.358a707.389 707.389 0 0112.668 25.825l.055.054c.47.932.868 1.971 1.32 2.867.29.7.58 1.255.761 1.846.344 1.613.525 3.047.344 4.48zm25.191-3.047a9.16 9.16 0 01-3.952-.833 9.076 9.076 0 01-3.196-2.447 11.67 11.67 0 01-2.896-8.029 12.4 12.4 0 013.004-8.207 9.583 9.583 0 013.319-2.479 9.671 9.671 0 014.065-.855 7.844 7.844 0 013.797.863 7.756 7.756 0 012.899 2.578l.18-2.814h5.285v21.65h-5.302l-.181-3.155a8.15 8.15 0 01-3.022 2.768 8.244 8.244 0 01-4 .96zm1.375-5.162c1.05 0 1.973-.286 2.842-.806.796-.573 1.447-1.326 1.954-2.24.453-.914.688-2.007.688-3.226a6.077 6.077 0 00-.604-3.072 6.146 6.146 0 00-2.056-2.376 5.378 5.378 0 00-5.647 0c-.796.573-1.448 1.326-1.954 2.24a7.127 7.127 0 00-.688 3.226 6.077 6.077 0 00.604 3.072 6.146 6.146 0 002.056 2.376c.85.52 1.774.806 2.805.806zM96.767 15.2c0 .627-.109 1.2-.398 1.667a3.38 3.38 0 01-1.213 1.147c-.525.286-1.086.394-1.665.394s-1.158-.108-1.683-.394a3.315 3.315 0 01-1.212-1.147 3.236 3.236 0 01-.399-1.667c0-.645.127-1.219.399-1.667.29-.537.705-.86 1.212-1.147a3.439 3.439 0 011.683-.412 3.355 3.355 0 011.653.392c.508.27.936.666 1.243 1.15.263.522.394 1.1.38 1.684zm-6.153 27.42V21.007h5.755v21.649h-5.773l.018-.036zm21.137-15.95v.071c-.271-.125-.633-.179-.905-.233-.362-.071-.651-.071-.995-.071-1.611 0-2.823.466-3.619 1.433-.869.986-1.267 2.366-1.267 4.14v10.628h-5.773v-21.65h5.302l.181 3.28c.579-1.147 1.267-2.007 2.244-2.652a5.653 5.653 0 013.276-.896c.416 0 .814.036 1.158.107.181.054.29.054.398.108v5.735zm2.317 15.95V12.117h5.754v11.65c.815-1.04 1.738-1.846 2.896-2.474a9.166 9.166 0 015.913-.717 9.101 9.101 0 015.09 3.065 11.67 11.67 0 012.896 8.047 12.405 12.405 0 01-3.004 8.208 9.584 9.584 0 01-3.319 2.478 9.672 9.672 0 01-4.065.855 7.843 7.843 0 01-3.797-.863 7.752 7.752 0 01-2.899-2.578l-.181 2.814-5.284.054v-.036zm11.129-4.517c1.032 0 1.955-.286 2.823-.806.797-.573 1.448-1.326 1.955-2.24.471-.914.688-2.007.688-3.226 0-1.2-.217-2.294-.688-3.208a6.734 6.734 0 00-1.955-2.24 5.377 5.377 0 00-5.646 0c-.814.573-1.448 1.326-1.972 2.24a7.126 7.126 0 00-.688 3.226 6.066 6.066 0 00.604 3.072 6.147 6.147 0 002.056 2.376c.851.52 1.774.806 2.823.806zm13.591 4.535v-21.65h5.303l.181 2.814a7.132 7.132 0 012.738-2.556 7.22 7.22 0 013.668-.83 7.47 7.47 0 014.122 1.153 7.363 7.363 0 012.791 3.219c.634 1.362.977 3.046.977 4.928v12.975h-5.773V30.47c0-1.505-.343-2.688-1.031-3.566-.688-.86-1.629-1.327-2.823-1.327-.869 0-1.629.18-2.299.574a4.493 4.493 0 00-1.556 1.667 4.807 4.807 0 00-.579 2.419v12.402h-5.719zm22.658 0V12.1h5.773v11.649a8.43 8.43 0 012.971-2.484 8.52 8.52 0 013.779-.904 9.16 9.16 0 013.952.833 9.086 9.086 0 013.197 2.447 11.709 11.709 0 012.877 8.029 12.388 12.388 0 01-3.004 8.208 9.59 9.59 0 01-3.318 2.478 9.675 9.675 0 01-4.066.855 7.843 7.843 0 01-3.797-.863 7.76 7.76 0 01-2.899-2.578l-.163 2.814-5.302.054zm11.184-4.535a5.28 5.28 0 002.823-.806c.814-.573 1.448-1.326 1.973-2.24.452-.914.687-2.007.687-3.226a6.076 6.076 0 00-.603-3.072 6.15 6.15 0 00-2.057-2.376 5.377 5.377 0 00-5.646 0c-.796.573-1.448 1.326-1.955 2.24a6.446 6.446 0 00-.687 3.226 6.076 6.076 0 00.603 3.072 6.15 6.15 0 002.057 2.376c.85.52 1.719.806 2.805.806z" fill="#4F4F4F"/></svg>
